X:5
T:Sally
N:page 12 on manuscript
M:3/4
L:1/8
K:C
G | Gc (c2 B)c | fd (c2 B)c | AG G3 F | E c3 z G | Gc (c2 B)c | fd (c2 B)c | AG G3 F | E c3 z G |
GE G2 _B2 | AF A3 B | cA (fe)(dc) | c d3 z G | FE D2 C2 | fe (e2 d)c | fAcBAG | G c3 z ||

